svg/u1f4e7.svg

<svg viewBox="0 0 128 128" xmlns="http://www.w3.org/2000/svg">
  <defs/>
  <path d="M117.64,102.31 L10.36,102.31 C7.62,102.31 6.53,100.6 6.53,98.48 L6.53,29.52 C6.53,27.4 8.24,25.69 10.36,25.69 L117.63,25.69 C119.75,25.69 121.46,27.4 121.46,29.52 L121.46,98.48 C121.47,100.6 119.75,102.31 117.64,102.31 Z" fill="#FFFFFF"/>
  <path d="M120.94,28.12 C120.43,27.51 119.53,27.43 118.92,27.93 L82.23,58.81 L82.23,65.16 L86,61.73 L118.25,100.46 C118.92,101.11 119.49,101.36 120.08,100.93 C120.45,100.66 120.37,100.15 119.83,99.56 L90.26,57.86 L120.76,30.14 C121.36,29.64 121.45,28.73 120.94,28.12 Z" fill="#6FBFF0"/>
  <path d="M121.132,27.96 Q121.58,28.495 121.515,29.194 Q121.451,29.887 120.924,30.329 L90.592,57.896 L120.025,99.403 Q120.467,99.889 120.542,100.322 Q120.633,100.836 120.227,101.132 Q119.289,101.816 118.076,100.639 L118.066,100.63 L85.975,62.091 L81.98,65.725 L81.98,58.694 L118.762,27.737 Q120.057,26.675 121.132,27.96 Z M120.748,28.28 Q119.991,27.375 119.078,28.123 L82.48,58.926 L82.48,64.595 L86.025,61.369 L118.433,100.29 Q119.338,101.162 119.933,100.728 Q120.086,100.616 120.05,100.408 Q119.998,100.114 119.646,99.729 L119.635,99.717 L89.928,57.824 L120.596,29.951 L120.6,29.948 Q120.972,29.638 121.017,29.148 Q121.063,28.656 120.748,28.28 Z" fill="#6FBFF0"/>
  <path d="M47.04,59.87 L9.08,27.93 C8.47,27.42 7.56,27.51 7.06,28.12 C6.55,28.73 6.64,29.64 7.25,30.14 L37.75,57.86 L8.17,99.57 C7.64,100.16 7.56,100.67 7.92,100.94 C8.51,101.37 9.08,101.12 9.75,100.47 L42,61.73 L47.04,66.31 L47.04,59.87 Z" fill="#6FBFF0"/>
  <path d="M47.29,59.754 L47.29,66.875 L42.025,62.091 L9.934,100.64 L9.924,100.649 Q8.711,101.826 7.77,101.14 Q7.375,100.844 7.465,100.332 Q7.541,99.9 7.974,99.414 L37.418,57.896 L7.086,30.329 Q6.552,29.888 6.486,29.195 Q6.419,28.496 6.867,27.962 Q7.308,27.423 8.005,27.356 Q8.704,27.289 9.241,27.739 L47.201,59.679 Z M46.79,59.986 L8.919,28.121 Q8.543,27.807 8.053,27.854 Q7.563,27.901 7.253,28.278 Q6.937,28.657 6.984,29.147 Q7.031,29.637 7.408,29.947 L7.413,29.951 L38.082,57.824 L8.366,99.726 L8.356,99.737 Q8.009,100.123 7.957,100.418 Q7.921,100.628 8.07,100.74 Q8.662,101.172 9.566,100.3 L41.975,61.369 L46.79,65.745 L46.79,59.986 Z" fill="#6FBFF0"/>
  <path d="M117.64,104.31 L10.36,104.31 Q7.513,104.31 5.922,102.518 Q4.53,100.951 4.53,98.48 L4.53,29.52 Q4.53,27.102 6.236,25.396 Q7.942,23.69 10.36,23.69 L117.63,23.69 Q120.048,23.69 121.754,25.396 Q123.46,27.102 123.46,29.52 L123.46,98.48 Q123.471,100.892 121.759,102.604 Q120.053,104.31 117.64,104.31 Z M117.64,100.31 Q118.397,100.31 118.931,99.776 Q119.464,99.243 119.46,98.48 L119.46,29.52 Q119.46,27.69 117.63,27.69 L10.36,27.69 Q8.53,27.69 8.53,29.52 L8.53,98.48 Q8.53,99.431 8.913,99.862 Q9.311,100.31 10.36,100.31 Z" fill="#6FBFF0"/>
  <path d="M51.52,41.96 L77.02,39.67 C77.03,39.67 77.04,39.67 77.05,39.67 L78.44,39.67 C78.73,39.67 79.01,39.8 79.19,40.03 L80.64,41.88 C80.69,41.95 80.72,42.03 80.72,42.11 L80.72,49.93 C80.72,50.14 80.55,50.31 80.34,50.31 L60.34,50.31 C60.13,50.31 59.96,50.48 59.96,50.69 L59.96,60.68 C59.96,60.91 60.16,61.08 60.39,61.05 L75.63,58.8 C75.65,58.8 75.67,58.8 75.68,58.8 L76.3,58.8 C76.62,58.8 76.92,58.95 77.11,59.19 L78.54,61.01 C78.59,61.08 78.62,61.16 78.62,61.24 L78.62,69.06 C78.62,69.27 78.45,69.44 78.24,69.44 L60.35,69.44 C60.14,69.44 59.97,69.61 59.97,69.82 L59.97,79.8 C59.97,80.03 60.18,80.21 60.41,80.17 L73.54,77.93 C73.56,77.93 73.58,77.92 73.6,77.92 L78.4,77.92 C78.72,77.92 79.02,78.07 79.22,78.32 L80.64,80.14 C80.69,80.21 80.72,80.29 80.72,80.37 L80.72,88.19 C80.72,88.4 80.55,88.57 80.34,88.57 L51.38,88.57 C51.26,88.57 51.16,88.52 51.08,88.43 L49.46,86.36 C49.41,86.29 49.38,86.2 49.38,86.11 L51.18,42.33 C51.19,42.13 51.34,41.97 51.52,41.96 Z" fill="#0D47A1"/>
  <path d="M50.04,39.67 L78.25,39.67 C78.62,39.67 78.91,39.97 78.91,40.33 L78.91,47.33 C78.91,47.7 78.61,47.99 78.25,47.99 L58.82,47.99 C58.45,47.99 58.16,48.29 58.16,48.65 L58.16,58.12 C58.16,58.49 58.46,58.78 58.82,58.78 L76.16,58.78 C76.53,58.78 76.82,59.08 76.82,59.44 L76.82,66.44 C76.82,66.81 76.52,67.1 76.16,67.1 L58.82,67.1 C58.45,67.1 58.16,67.4 58.16,67.76 L58.16,77.23 C58.16,77.6 58.46,77.89 58.82,77.89 L78.25,77.89 C78.62,77.89 78.91,78.19 78.91,78.55 L78.91,85.55 C78.91,85.92 78.61,86.21 78.25,86.21 L50.04,86.21 C49.67,86.21 49.38,85.91 49.38,85.55 L49.38,40.33 C49.38,39.96 49.68,39.67 50.04,39.67 Z" fill="#2196F3"/>
</svg>

<svg viewBox="0 0 128 128" xmlns="http://www.w3.org/2000/svg">
  <g>
    <path d="M117.64,102.31H10.36c-2.74,0-3.83-1.71-3.83-3.83V29.52c0-2.12,1.71-3.83,3.83-3.83h107.27 c2.12,0,3.83,1.71,3.83,3.83v68.96C121.47,100.6,119.75,102.31,117.64,102.31z" fill="#FFFFFF"/>
    <g>
      <path d="M120.94,28.12 c-0.51-0.61-1.41-0.69-2.02-0.19L82.23,58.81v6.35L86,61.73l32.25,38.73c0.67,0.65,1.24,0.9,1.83,0.47 c0.37-0.27,0.29-0.78-0.25-1.37L90.26,57.86l30.5-27.72C121.36,29.64,121.45,28.73,120.94,28.12z" fill="#6FBFF0" stroke="#6FBFF0" stroke-width="0.5" stroke-miterlimit="10"/>
      <path d="M47.04,59.87L9.08,27.93 c-0.61-0.51-1.52-0.42-2.02,0.19c-0.51,0.61-0.42,1.52,0.19,2.02l30.5,27.72L8.17,99.57c-0.53,0.59-0.61,1.1-0.25,1.37 c0.59,0.43,1.16,0.18,1.83-0.47L42,61.73l5.04,4.58V59.87z" fill="#6FBFF0" stroke="#6FBFF0" stroke-width="0.5" stroke-miterlimit="10"/>
    </g>
    <path d="M117.64,102.31H10.36c-2.74,0-3.83-1.71-3.83-3.83 V29.52c0-2.12,1.71-3.83,3.83-3.83h107.27c2.12,0,3.83,1.71,3.83,3.83v68.96C121.47,100.6,119.75,102.31,117.64,102.31z" fill="none" stroke="#6FBFF0" stroke-width="4" stroke-miterlimit="10"/>
    <g>
      <path d="M51.52,41.96l25.5-2.29c0.01,0,0.02,0,0.03,0h1.39c0.29,0,0.57,0.13,0.75,0.36l1.45,1.85 c0.05,0.07,0.08,0.15,0.08,0.23v7.82c0,0.21-0.17,0.38-0.38,0.38h-20c-0.21,0-0.38,0.17-0.38,0.38v9.99c0,0.23,0.2,0.4,0.43,0.37 l15.24-2.25c0.02,0,0.04,0,0.05,0h0.62c0.32,0,0.62,0.15,0.81,0.39l1.43,1.82c0.05,0.07,0.08,0.15,0.08,0.23v7.82 c0,0.21-0.17,0.38-0.38,0.38H60.35c-0.21,0-0.38,0.17-0.38,0.38v9.98c0,0.23,0.21,0.41,0.44,0.37l13.13-2.24 c0.02,0,0.04-0.01,0.06-0.01h4.8c0.32,0,0.62,0.15,0.82,0.4l1.42,1.82c0.05,0.07,0.08,0.15,0.08,0.23v7.82 c0,0.21-0.17,0.38-0.38,0.38H51.38c-0.12,0-0.22-0.05-0.3-0.14l-1.62-2.07c-0.05-0.07-0.08-0.16-0.08-0.25l1.8-43.78 C51.19,42.13,51.34,41.97,51.52,41.96z" fill="#0D47A1"/>
      <path d="M50.04,39.67h28.21c0.37,0,0.66,0.3,0.66,0.66v7c0,0.37-0.3,0.66-0.66,0.66H58.82 c-0.37,0-0.66,0.3-0.66,0.66v9.47c0,0.37,0.3,0.66,0.66,0.66h17.34c0.37,0,0.66,0.3,0.66,0.66v7c0,0.37-0.3,0.66-0.66,0.66H58.82 c-0.37,0-0.66,0.3-0.66,0.66v9.47c0,0.37,0.3,0.66,0.66,0.66h19.43c0.37,0,0.66,0.3,0.66,0.66v7c0,0.37-0.3,0.66-0.66,0.66H50.04 c-0.37,0-0.66-0.3-0.66-0.66V40.33C49.38,39.96,49.68,39.67,50.04,39.67z" fill="#2196F3"/>
    </g>
  </g>
</svg>
